X: 8
M: 6/8
L: 1/8
K: Amix
e2e efe | d2B G2A | B2B BAG | AAA Bcd |
e2e efe | d2B G2A | Bcd A2F | A2z z2c/d/ |
e2e ef^/g | a2f d3 | ef^/g e2c | e3- e2c/d/ |
e2e ef^/g | a2f d3 | ef^/g e2c | e2z z2c/d/ |
e2e efe | d2B G2A | B2B BAG | A2"D.C."z |]


